X: 31498
T: Paddy Works On The Railway
R: jig
M: 6/8
K: Cmajor
D|A2 A AAG|A2 B c2 A|G2 G GGF|E2 F G2 G|
A2 A AAG|A2 B c2 A|c2 c d2 B|A3 A3|
AAA A2 G|A2 B c3|GGG G2 F|E2 F G3|
AAA A2 G|A2 B c2 A|c2 c d2 B|A3 A2|

